X: 8955
T: Currie Dance
R: jig
M: 6/8
K: Gmajor
G3 G A2|B2 B2 A2|B2 g3 g|g2 f2 g2|a3 g fe|d2 d6:|
d2 d2 A2|A2 A2 B2|c2 {e}B2 B2|A2 e2 d2|c2 B2 A2|G6||
(3ddd A2 A2|A2 B2 c2|c2 B2 B2|A3 A2 A|A2 G2 A2|
(3ddd A2 A2|A2 B2 c2|c2 HB2 B2|A2 e2 d2|
c2 B2 A2|(G6|G6)||

